Adwaita++-Light/panel/22/museeks-tray.svg

<svg height="22" width="22" xmlns="http://www.w3.org/2000/svg">
  <g fill="#444">
    <path d="m15.833984 3-4.978515 5.5449219 1.945312 1.7031251.861328.751953-5.4316402 4.751953-.2558594.222656 1.5449218 1.544922 4.4804688-4.992187v6.472656h5v-16zm-6.3144528 7.033203-3.5410156 3.945313.5800782.580078.3535156-.310547 3.7128906-3.248047z" opacity=".3"/>
    <path d="m12.142857 11-4.5714283 4-4.5714284 4v-15.9999997l4.5714284 3.9999999z"/>
  </g>
</svg>

<svg xmlns="http://www.w3.org/2000/svg" width="22" height="22" version="1.1">
 <defs>
  <style id="current-color-scheme" type="text/css">
   .ColorScheme-Text { color:#444444; } .ColorScheme-Highlight { color:#4285f4; }
  </style>
 </defs>
 <path style="opacity:0.3;fill:currentColor" class="ColorScheme-Text" d="M 15.833984 3 L 10.855469 8.5449219 L 12.800781 10.248047 L 13.662109 11 L 8.2304688 15.751953 L 7.9746094 15.974609 L 9.5195312 17.519531 L 14 12.527344 L 14 19 L 19 19 L 19 3 L 15.833984 3 z M 9.5195312 10.033203 L 5.9785156 13.978516 L 6.5585938 14.558594 L 6.9121094 14.248047 L 10.625 11 L 9.5195312 10.033203 z"/>
 <path style="fill:currentColor" class="ColorScheme-Text" d="M 12.142857,11 7.5714287,15 3.0000003,19 V 3.0000003 l 4.5714284,3.9999999 z"/>
</svg>
